icon-themes/sifr_svg/cmd/sc_duplicatepage.svg

<svg viewBox="0 0 16 16" xmlns="http://www.w3.org/2000/svg"><path d="m0 0v8h10v-3h2v1.1c-.1-.1-.200781-.1-.300781-.1h-.699219v.25.3496094c0 .1852694.06022.3325621.1875.4511718l1.8125 1.9492188c.71528-.85 1.09722-1.0992087 1.8125-2 .0875-.1.1875-.2.1875-.4v-.35-.25h-.666016c-.133984 0-.233984 0-.333984.1v-2.1c-.000055-.552262-.447738-1-1-1h-3v-3zm13 9h-8v7h10v-7zm-11-7h6v4h-6zm5 9h6v3h-6z" fill="#555753"/></svg>

<svg xmlns="http://www.w3.org/2000/svg" viewBox="0 0 16 16">
  <path
     style="fill:#555753"
     d="M 0,0 V 8 H 10 V 5 h 2 V 6.1 C 11.9,6 11.799219,6 11.699219,6 H 11 v 0.25 0.3496094 c 0,0.1852694 0.06022,0.3325621 0.1875,0.4511718 L 13,9 C 13.71528,8.15 14.09722,7.9007913 14.8125,7 14.9,6.9 15,6.8 15,6.6 V 6.25 6 H 14.333984 C 14.2,6 14.1,6 14,6.1 V 4 C 13.999945,3.447738 13.552262,3 13,3 H 10 V 0 Z M 13,9 H 5 v 7 H 15 V 9 Z M 2,2 H 8 V 6 H 2 Z m 5,9 h 6 v 3 H 7 Z"
     />
</svg>
